X:1
T:The Breath of the Spirit
T:Charles Hutchinson Gabriel
T:The Breath of the Spirit
T:Public Domain
T:Public Domain
C:Charles Hutchinson Gabriel
Z:Public Domain
%%score ( 1 2 ) ( 3 4 )
L:1/8
M:6/8
K:Ab
V:1 treble 
V:2 treble 
V:3 bass 
V:4 bass 
V:1
 [CE] | [CE][DF][DG] [CA][DG][EA] | [EB][EA][EB] [Ec]>[EB][EA] | [FA][EG][DF] [CE][CA][Ec] | %4
w: 1.~Long|years we have yearned for the|show- ers of bless- ing, Have|ear- nest- ly prayed for a-|
w: 2.~The|life has been fruit- less, the|heart dry and thirst- y, The|task of the Mas- ter seemed|
w: 3.~No|tithes have been brought to the|store- house of Heav- en, Our|pow- ers for ser- vice long|
w: 4.~No|souls have been won for the|king- dom of glo- ry, But|pow- er for ser- vice we|
 [=DB][DF][Dc] [_DB]2 [DE] | [CE][DF][DG] [CA][DG][EA] | [EB][EA][EB] [Ec]<[Ee][Fd] | %7
w: bun- dance of rain; Praise|God, some are sing- ing the|new song of Heav- en, The|
w: giv- en in vain; But|now ev- ’ry day is a|day of rich bless- ing, The|
w: dor- mant have lain; But|now ev- ’ry im- pulse is|used in God’s glo- ry, The|
w: now may ob- tain; Then|glad- ly as reap- ers we|en- ter the har- vest, The|
 [Ec]>[Ec][Ec] [Ec][EB][EA] | [EB][EA][EG] [EA]3 ||"^Refrain" [Ec]3- [Ec][=D=B][Ec] | %10
w: breath of the Spir- it brings|pow- er a- gain.||
w: breath of the Spir- it brings|pow- er a- gain.|Po- * wer a-|
w: breath of the Spir- it brings|pow- er a- gain.||
w: breath of the Spir- it brings|pow- er a- gain.||
 [CA]3- [CA]2 z | (E>EE [Ee])[F=d][Ee] | (E>EE [Ec]2) [Ec] | [Ed]>[Ed][Ed] [Ed][Ec][EB] | %14
w: ||||
w: gain, *|Po- * * * wer a-|* * * * Our|have been tuned to the sweet|
w: ||||
w: ||||
 [Ec]2 [Ed] [Ee]2 [Fd] |] %15
w: |
w: re- frain, The *|
w: |
w: |
V:2
 x | x6 | x6 | x6 | x6 | x6 | x6 | x6 | x6 || x6 | x6 | e3- x3 | c3- x3 | x6 | x6 |] %15
w: |||||||||||||||
w: |||||||||||gain,|hearts|||
V:3
 [A,,A,] | [A,,A,][A,,A,][A,,A,] [A,,E,][B,,E,][C,A,] | [E,G,][E,F,][E,G,] [A,,A,]>[B,,G,][C,A,] | %3
w: ~|~ ~ ~ ~ ~ ~|~ ~ ~ ~ ~ ~|
 [D,D][D,D][D,A,] [A,,A,][A,,A,][A,,A,] | [B,,A,][B,,A,][B,,A,] [E,G,]2 [E,G,] | %5
w: ~ ~ ~ ~ ~ ~|~ ~ ~ ~ ~|
 [A,,A,][A,,A,][A,,A,] [A,,E,][B,,E,][C,A,] | [E,G,][E,F,][E,G,] A,<[A,C][D,A,] | %7
w: ~ ~ ~ ~ ~ ~|~ ~ ~ ~ ~ ~|
 [E,A,]>[E,A,][E,A,] [E,A,][E,D][E,C] | [E,D][E,C][E,B,] [A,,C]3 || %9
w: ~ ~ ~ ~ ~ ~|~ ~ ~ Pow-|
 [A,,A,]>[A,,A,][A,,A,] [A,,A,]2 [A,,A,] | [A,,A,]>[A,,A,][A,,A,] [A,,A,]2 z | A,>A,A, C=B,[A,C] | %12
w: er a- gain is on|us to- day, Cold-|ness and sin are tak- en|
 (A,>A,A, A,2) A, | [E,B,]>[E,B,][E,B,] [E,B,][E,A,][E,G,] | A,2 [A,B,] [A,C]2 [D,A,] |] %15
w: |||
V:4
 x | x6 | x6 | x6 | x6 | x6 | x3 A,/ x5/2 | x6 | x6 || x6 | x6 | C3- A,2 x | A,3- A,2 A, | x6 | %14
w: ||||||~|||||a- way.|||
 A,2 x4 |] %15
w: |

